X: 33
T: Renzou qianli zhe huilai
%%abc-version 2.0
%%abcx-abcm2ps-target-version 5.9.1 (29 Sep 2008)
%%abc-creator hum2abc beta
%%abcx-conversion-date 2013/10/02 07:52:29
%%abc-edited-by Helmut Schaffrath
%%humdrum-veritas 1730476324
%%humdrum-veritas-data 3370505357
%%continueall 1
%%barnumbers 0
L: 1/8
M: 2/4
K: Bb
z F F b [I:setbarnb 1]| 
f3d | 
b d (3c B c | 
d d/ f/ B G/ F/ | 
c4 | 
z F F b | 
f3d | 
b d (3c B c | 
d d/ f/ c/ B/ G/ B/ | 
F4 |]  



